X: 9
M: 2/4
L: 1/16
K: Amix
!f!(6:6ABcdef !Segno!|: \
!mf!vf2f2 z2uf2 | z2f2z2vf2- | f2c2d2B2 | A2G2F2E2 |
ved |\
"dance"\
cBAc BA^GB | ABcd efga | cBAc BA^GB | cedB A2E2 |
cBAc BA^GB | ABcd efga | cBAc BAGB | cedB A2z2 !Segno!|] \
"break"vc2ee e2e2 | ea^gb [a4c4] H|]


